X: 54
T: Ghost Dance Song (b)
N: Derived from pawnee54.krn
O: Oklahoma, U.S.A.
N: from Pawnee Music by Frances Densmore, 1926
Z: transcribed to **kern format by David Huron, August 2000
C: Skidi and Chaui Bands, 1919
L: 1/8
M: 2/4
Q: 1/4=88
K: Ab clef=bass
%%linebreak <none>
C C C/ z/ B, | 
B, A, A, z | 
C C C/ z/ B, | 
B, A, A, z | 
B, B, B,/ z/ B, | 
B, A, A, z | 
B, B, B,/ z/ B, | 
B, A, A, z | 
F, F, F,/ z/ F, | 
F, F, F, z | 
F, F, F,/ z/ F, | 
F, F, F, z |]  



